src/assets/outline/Arrow3.svg

<svg width="24" height="24" viewBox="0 0 24 24"  xmlns="http://www.w3.org/2000/svg">
<path d="M10.4502 7.46997C10.2602 7.46997 10.0702 7.4 9.9202 7.25L6.7302 4.06L3.54019 7.25C3.25019 7.54 2.7702 7.54 2.4802 7.25C2.1902 6.96 2.1902 6.48 2.4802 6.19L6.20023 2.46997C6.34023 2.32997 6.5302 2.25 6.7302 2.25C6.9302 2.25 7.12022 2.32997 7.26022 2.46997L10.9802 6.19C11.2702 6.48 11.2702 6.96 10.9802 7.25C10.8302 7.4 10.6402 7.46997 10.4502 7.46997Z" />
<path d="M6.72998 21.75C6.31998 21.75 5.97998 21.41 5.97998 21V3C5.97998 2.59 6.31998 2.25 6.72998 2.25C7.13998 2.25 7.47998 2.59 7.47998 3V21C7.47998 21.41 7.13998 21.75 6.72998 21.75Z" />
<path d="M17.28 21.75C17.08 21.75 16.89 21.67 16.75 21.53L13.03 17.81C12.74 17.52 12.74 17.04 13.03 16.75C13.32 16.46 13.8 16.46 14.09 16.75L17.28 19.94L20.4699 16.75C20.7599 16.46 21.24 16.46 21.53 16.75C21.82 17.04 21.82 17.52 21.53 17.81L17.81 21.53C17.67 21.67 17.47 21.75 17.28 21.75Z" />
<path d="M17.27 21.75C16.86 21.75 16.52 21.41 16.52 21V3C16.52 2.59 16.86 2.25 17.27 2.25C17.68 2.25 18.02 2.59 18.02 3V21C18.02 21.41 17.69 21.75 17.27 21.75Z" />
</svg>

<?xml version="1.0" encoding="UTF-8"?>
<svg width="24" height="24" viewBox="0 0 24 24" xmlns="http://www.w3.org/2000/svg">
 <path d="m10.45 7.47c-0.19 0-0.38-0.06997-0.53-0.21997l-3.19-3.19-3.19 3.19c-0.29 0.29-0.76999 0.29-1.06 0s-0.29-0.77 0-1.06l3.72-3.72c0.14-0.14 0.32997-0.21997 0.52997-0.21997s0.39002 0.07997 0.53002 0.21997l3.72 3.72c0.29 0.29 0.29 0.77 0 1.06-0.15 0.15-0.34 0.21997-0.53 0.21997z"/>
 <path d="m6.73 21.75c-0.41 0-0.75-0.34-0.75-0.75v-18c0-0.41 0.34-0.75 0.75-0.75s0.75 0.34 0.75 0.75v18c0 0.41-0.34 0.75-0.75 0.75z"/>
 <path d="m17.28 21.75c-0.2 0-0.39-0.08-0.53-0.22l-3.72-3.72c-0.29-0.29-0.29-0.77 0-1.06s0.77-0.29 1.06 0l3.19 3.19 3.1899-3.19c0.29-0.29 0.7701-0.29 1.0601 0s0.29 0.77 0 1.06l-3.72 3.72c-0.14 0.14-0.34 0.22-0.53 0.22z"/>
 <path d="m17.27 21.75c-0.41 0-0.75-0.34-0.75-0.75v-18c0-0.41 0.34-0.75 0.75-0.75s0.75 0.34 0.75 0.75v18c0 0.41-0.33 0.75-0.75 0.75z"/>
</svg>
